public/seekhelp-icon.svg

<svg width="60" height="60" viewBox="0 0 60 60" fill="none" xmlns="http://www.w3.org/2000/svg">
<path fill-rule="evenodd" clip-rule="evenodd" d="M30.2997 58.7874C24.7025 58.7874 24.1224 53.9189 24.1828 51.9819H36.4199C36.3206 53.8641 35.8968 58.7874 30.2997 58.7874ZM24.1828 46.1902C23.927 42.8764 16.8081 39.5117 16.8081 31.1389C16.8081 22.2086 23.2946 17.4733 30.3641 17.2941C37.4356 17.4741 43.9216 22.2086 43.9216 31.1389C43.9221 39.5117 36.7519 42.8404 36.4199 46.1902H24.1828Z" stroke="black" stroke-opacity="0.8" stroke-width="1.5" stroke-linecap="round" stroke-linejoin="round"/>
<path d="M30.0244 1.19998V9.67057" stroke="black" stroke-opacity="0.8" stroke-width="1.5" stroke-linecap="round" stroke-linejoin="round"/>
<path d="M49.9075 6.28235L44.0667 12.272" stroke="black" stroke-opacity="0.8" stroke-width="1.5" stroke-linecap="round" stroke-linejoin="round"/>
<path d="M10.2 6.28235L16.0408 12.272" stroke="black" stroke-opacity="0.8" stroke-width="1.5" stroke-linecap="round" stroke-linejoin="round"/>
<path d="M28.6758 35.6821H30.8695V35.5363C30.9002 33.7721 31.4065 32.9821 32.7104 32.1767C34.0835 31.3483 34.9272 30.1824 34.9272 28.4565C34.9272 25.9636 33.0403 24.2761 30.2252 24.2761C27.6403 24.2761 25.5693 25.7872 25.4695 28.5486H27.8014C27.8934 26.9224 29.0516 26.2091 30.2252 26.2091C31.5292 26.2091 32.5877 27.0758 32.5877 28.4335C32.5877 29.5764 31.8744 30.3818 30.9616 30.9494C29.5349 31.8238 28.6911 32.6906 28.6758 35.5363V35.6821ZM29.834 40.3457C30.6701 40.3457 31.3681 39.663 31.3681 38.8116C31.3681 37.9755 30.6701 37.2852 29.834 37.2852C28.9903 37.2852 28.2999 37.9755 28.2999 38.8116C28.2999 39.663 28.9903 40.3457 29.834 40.3457Z" fill="black" fill-opacity="0.8"/>
</svg>

<svg xmlns="http://www.w3.org/2000/svg" width="60" height="60" fill="none" xmlns:v="https://vecta.io/nano"><g stroke="#000" stroke-width="1.5" stroke-linejoin="round"><path d="M30.3 58.787c-5.597 0-6.177-4.868-6.117-6.805H36.42c-.099 1.882-.523 6.805-6.12 6.805zM24.183 46.19c-.256-3.314-7.375-6.678-7.375-15.051 0-8.93 6.486-13.666 13.556-13.845 7.072.18 13.557 4.915 13.557 13.845.001 8.373-7.17 11.702-7.502 15.051H24.183z" stroke-opacity=".8"/><path d="M30.024 1.2v8.471m19.884-3.389l-5.841 5.99M10.2 6.282l5.841 5.99" stroke-opacity=".8" stroke-linecap="round"/></g><path d="M28.676 35.682h2.194v-.146c.031-1.764.537-2.554 1.841-3.36 1.373-.828 2.217-1.994 2.217-3.72 0-2.493-1.887-4.18-4.702-4.18-2.585 0-4.656 1.511-4.756 4.273h2.332c.092-1.626 1.25-2.34 2.424-2.34 1.304 0 2.362.867 2.362 2.224 0 1.143-.713 1.948-1.626 2.516-1.427.874-2.271 1.741-2.286 4.587v.146zm1.158 4.664a1.54 1.54 0 0 0 1.534-1.534c0-.836-.698-1.526-1.534-1.526-.844 0-1.534.69-1.534 1.526 0 .851.69 1.534 1.534 1.534z" fill="#000" fill-opacity=".8"/></svg>
